X:690
T: ES WAR EIN KOENIG WOL AN DEM RHEIN
N: E2114
O: Europa, Mitteleuropa, Deutschland, Mittel - Franken, Ziegelanger
R: geistlich, Heiligen - Lied, Legende
M: 3/4
L: 1/16
K: G
G2 | G2B2d6B2 | c2d2e4z2
d2 | d3cc4B2A2 | B2c2d4z2
G2 | G2B2d4B4 | A4G4z2
G2 | G2B2d4B4 | A4G4z2

